lib/kid_head_helmet.svg

<?xml version="1.0" encoding="UTF-8" standalone="no"?>
<!-- Created with Inkscape (http://www.inkscape.org/) -->

<svg
   xmlns:dc="http://purl.org/dc/elements/1.1/"
   xmlns:cc="http://creativecommons.org/ns#"
   xmlns:rdf="http://www.w3.org/1999/02/22-rdf-syntax-ns#"
   xmlns:svg="http://www.w3.org/2000/svg"
   xmlns="http://www.w3.org/2000/svg"
   xmlns:sodipodi="http://sodipodi.sourceforge.net/DTD/sodipodi-0.dtd"
   xmlns:inkscape="http://www.inkscape.org/namespaces/inkscape"
   width="343pt"
   height="340pt"
   id="svg2999"
   version="1.1"
   inkscape:version="0.48.5 r10040"
   sodipodi:docname="kid_head_helmet.svg">
  <defs
     id="defs3001" />
  <sodipodi:namedview
     pagecolor="#ffffff"
     bordercolor="#666666"
     borderopacity="1.0"
     inkscape:pageopacity="0.0"
     inkscape:pageshadow="2"
     inkscape:zoom="0.8"
     inkscape:cx="-81.25"
     inkscape:cy="210"
     inkscape:document-units="pt"
     inkscape:current-layer="layer1"
     id="namedview3003"
     showgrid="false"
     inkscape:window-width="1576"
     inkscape:window-height="761"
     inkscape:window-x="212"
     inkscape:window-y="281"
     inkscape:window-maximized="0" />
  <metadata
     id="metadata3005">
    <rdf:RDF>
      <cc:Work
         rdf:about="">
        <dc:format>image/svg+xml</dc:format>
        <dc:type
           rdf:resource="http://purl.org/dc/dcmitype/StillImage" />
        <dc:title />
      </cc:Work>
    </rdf:RDF>
  </metadata>
  <g
     inkscape:label="Layer 1"
     inkscape:groupmode="layer"
     id="layer1">
    <g
       id="g2984">
      <path
         sodipodi:nodetypes="cccccccccacczc"
         inkscape:connector-curvature="0"
         id="path4104"
         d="M 115.32236,371.781 C 132.17508,314.90381 129.75881,312.3234 94.459161,272.95021 51.708079,218.26686 52.366415,209.61992 75.963473,179.17922 95.204891,152.35368 135.84284,154.15966 197.93175,153.39365 c 79.5637,2.53121 149.12196,1.8614 160.34338,-2.77559 -26.15519,16.02031 -14.35507,32.59952 -14.35507,32.59952 10.32464,31.25846 -35.83933,38.41062 7.45556,73.94414 8.41095,11.97236 -10.2387,16.47711 -18.80068,22.70472 6.71074,9.59655 3.58166,15.47464 -2.43713,17.40806 0,0 4.74759,6.53858 3.48168,9.74851 -1.48535,3.7663 -10.79306,5.57058 -10.79306,5.57058 -0.14816,29.42239 -0.28288,26.39348 -23.6749,32.72716 0,0 -45.12647,3.45304 -49.43897,4.52609 -4.31251,1.07305 -15.31909,53.96497 -15.31909,53.96497"
         style="fill:none;stroke:#000000;stroke-width:12.78447818999999974;stroke-linecap:butt;stroke-linejoin:miter;stroke-miterlimit:4;stroke-opacity:1;stroke-dasharray:none" />
      <path
         id="path3197"
         d="M 161.57182,21.565253 C 75.408808,23.890643 15.980107,63.876933 14.017636,136.25548 l 392.956244,0.0308 C 406.74,108.85711 340.40163,62.318143 302.63389,48.110485 246.01192,24.679637 192.05484,21.385418 161.57182,21.565253 z m 8.9225,41.898922 c 40.60187,-0.213735 82.68331,9.878716 107.46953,20.255781 8.54929,3.958511 18.93932,10.921716 5.22698,10.698243 C 221.37896,93.410857 91.124021,93.863257 91.124021,93.863257 84.589097,93.401908 87.254991,86.652193 95.252342,81.561798 115.64576,68.581195 142.7141,63.610419 170.49432,63.464175 z M 14.017636,140.81842 c -2.657542,51.01789 16.736203,64.2284 31.66156,85.12358 5.75,7.16423 25.343662,4.34727 53.967811,-4.96375 l 102.708633,62.648 42.11554,75.47357 23.0054,-6.47445 -40.05138,-76.39849 53.83464,-99.12072 84.73047,-1.14073 c 24.31785,-0.0913 37.79102,-10.39066 40.3843,-25.15786 l 0.36622,-8.38594 -392.723194,-1.60321 z m 238.343964,36.68853 -43.74689,81.94803 -80.86849,-50.13072 72.17904,-31.10819 52.43634,-0.70912 z"
         style="fill:#000000;fill-opacity:1;stroke:#000000;stroke-width:1.02522123000000009px;stroke-linecap:butt;stroke-linejoin:miter;stroke-opacity:1"
         inkscape:connector-curvature="0" />
    </g>
  </g>
</svg>

<?xml version="1.0" encoding="UTF-8" standalone="no"?>
<!-- Created with Inkscape (http://www.inkscape.org/) -->
<svg id="svg2999" xmlns:rdf="http://www.w3.org/1999/02/22-rdf-syntax-ns#" xmlns="http://www.w3.org/2000/svg" height="340pt" width="343pt" version="1.1" xmlns:cc="http://creativecommons.org/ns#" xmlns:dc="http://purl.org/dc/elements/1.1/">
 <metadata id="metadata3005">
  <rdf:RDF>
   <cc:Work rdf:about="">
    <dc:format>image/svg+xml</dc:format>
    <dc:type rdf:resource="http://purl.org/dc/dcmitype/StillImage"/>
    <dc:title/>
   </cc:Work>
  </rdf:RDF>
 </metadata>
 <g id="layer1">
  <g id="g2984" stroke="#000">
   <path id="path4104" d="m115.32 371.78c16.86-56.88 14.44-59.46-20.861-98.83-42.751-54.68-42.093-63.33-18.496-93.77 19.242-26.83 59.877-25.02 121.97-25.79 79.564 2.5312 149.12 1.8614 160.34-2.7756-26.155 16.02-14.355 32.6-14.355 32.6 10.325 31.258-35.839 38.411 7.4556 73.944 8.411 11.972-10.239 16.477-18.801 22.705 6.7107 9.5966 3.5817 15.475-2.4371 17.408 0 0 4.7476 6.5386 3.4817 9.7485-1.4854 3.7663-10.793 5.5706-10.793 5.5706-0.14816 29.422-0.28288 26.393-23.675 32.727 0 0-45.126 3.453-49.439 4.5261-4.3125 1.073-15.319 53.965-15.319 53.965" stroke-width="12.784" fill="none"/>
   <path id="path3197" d="m161.57 21.565c-86.161 2.326-145.59 42.312-147.55 114.7l392.96 0.0308c-0.24-27.43-66.58-73.972-104.35-88.18-56.62-23.43-110.58-26.725-141.06-26.545zm8.9225 41.899c40.602-0.21374 82.683 9.8787 107.47 20.256 8.5493 3.9585 18.939 10.922 5.227 10.698-61.81-1.007-192.07-0.555-192.07-0.555-6.531-0.461-3.865-7.211 4.132-12.301 20.398-12.981 47.458-17.952 75.238-18.098zm-156.47 77.356c-2.6575 51.018 16.736 64.228 31.662 85.124 5.75 7.1642 25.344 4.3473 53.968-4.9638l102.71 62.648 42.116 75.474 23.005-6.4744-40.051-76.398 53.835-99.121 84.73-1.1407c24.318-0.0913 37.791-10.391 40.384-25.158l0.36622-8.3859-392.72-1.6032zm238.34 36.689-43.747 81.948-80.868-50.131 72.179-31.108 52.436-0.70912z" stroke-width="1.0252px"/>
  </g>
 </g>
</svg>
